X:1
T:Title
%%score ( 1 2 3 ) { 4 | 5 }
L:1/8
Q:1/4=107
M:4/4
K:G
V:1 treble nm="Grand Piano, Soprano"
V:2 treble 
V:3 treble 
V:4 bass nm="Choir Pad, Brussels, Joseph M. Hunt"
V:5 bass 
V:1
 D>D [DG]2- [DG][DG] [GB]2 | [Gd]2 [Gd]4 [GB]2 | [DG]>G [FA]2- [FA][FA] [Fd]2 | [Ad]2 [GB]6 | %4
w: By~Joseph~Marion~Hunt,~1883 * * * * *||||
 D>D [DG]2- [DG]G [GB]2 | [Gd]2 [Ge]4 [Gc]2 | [Gc]>[Gc] [GB]2- [GB][Gd] [FB]2 | [FA]2 G6 | z2 B6 | %9
w: |||||
 .B2 z2 z4 | z2 .d4 z2 | [GB]2 [FA]6 | z2 .G4 z2 | [Gd]2 [Gc]2 [Ge]4 | %14
w: |||||
 [Gd]>[Fc] [GB]2- [GB][DG] [GB]2 | [FA]2 G6- | G2 z2 z4 |] %17
w: |||
V:2
 x8 | x8 | x8 | x8 | x8 | x8 | x8 | x8 | G>A G>G GG z A | G-[Gc] [Gd]4 [GB]2 | %10
 e>e G>G G[Gd] [GB]2 | x8 | D>D D>D D[DG] [GB]2 | x8 | x8 | x8 | x8 |] %17
V:3
 x8 | x8 | x8 | x8 | x8 | x8 | x8 | x8 | z4 z2 G2 | x8 | x8 | x8 | x8 | x8 | x8 | x8 | x8 |] %17
V:4
 B,>B, B,2- B,B, D2 | B,2 B,4 D2 | B,>B,[K:treble] D2- DCA,D | D2 D6 | %4
 B,>B, B,2- B,B,[K:treble] D2 | B,2 C4 E2 | E>E D2- DB, D2 | C2 B,6 | z2 D>D DD D2 | G,A, B,4 D2 | %10
 z2 B,>B, B,B, D2 | D2 D6 | z2 B,>B, B,B, D2 | B,2[K:treble] E2 C4 | D>D D2- D[K:bass]B, D2 | %15
 C2 B,6- | B,2 z2 z4 |] %17
V:5
 G,>G, G,2- G,G, G,2 | G,2 G,4 G,2 | G,>G, D,2- D,D, D,2 | F,2 G,6 | G,>G, G,2- G,G, G,2 | %5
 G,2 C,4 C,2 | C,>C, D,2- D,D, D,2 | D,2 G,6 | z2 G,>G, G,G, G,2 | z2 G,4 G,2 | z2 G,>G, G,G, G,2 | %11
 G,2 D,6 | z2 G,>G, G,G, G,2 | G,2 C2 z4 | B,>A, G,2- G,G, D,2 | D,2 G,6- | G,2 z2 z4 |] %17

